svgs/sharp-light/map.svg

<svg xmlns="http://www.w3.org/2000/svg" viewBox="0 0 576 512"><!--! Font Awesome Pro 6.6.0 by @fontawesome - https://fontawesome.com License - https://fontawesome.com/license (Commercial License) Copyright 2024 Fonticons, Inc. --><path d="M160 387.8L32 434.3l0-315.9L160 71.9l0 315.9zm224 54.4L192 387.3l0-317.4 192 54.9 0 317.4zm32-2l0-315.9L544 77.7l0 315.9L416 440.1zM0 480l32-11.6L176 416l224 64 176-64 0-350 0-34L544 43.6 400 96 176 32 0 96 0 445.9 0 480z"/></svg>

<svg xmlns="http://www.w3.org/2000/svg" viewBox="0 0 576 512"><!--! Font Awesome Pro 6.5.2 by @fontawesome - https://fontawesome.com License - https://fontawesome.com/license (Commercial License) Copyright 2024 Fonticons, Inc. --><path d="M160 387.8L32 434.3V118.4L160 71.9V387.8zm224 54.4L192 387.3V69.9l192 54.9V442.1zm32-2V124.2L544 77.7V393.6L416 440.1zM0 480l32-11.6L176 416l224 64 176-64V66 32L544 43.6 400 96 176 32 0 96V445.9 480z"/></svg>
